X: 10801
T: Dragon Lady
R: jig
M: 6/8
K: Adorian
|:~E3 A2G|EFG E2D|~E3 ~F3|~G3 A2G|
~E3 A2G|EFG E2d|cde def|1 ged BAG:|2 ged BAg||
|:~a3 AaA|gAf edB|~A3 aAa|gef g3|a3 AaA|
gAf edB|1 ABc def|gab c'bg:|2 ABc Bcd|efg edB||

